!!!COM: Schoenberg [Schönberg], Arnold (Franz Walter)
!!!OTL: String Quartet No. 3, op. 30
!!!OMV: I: Moderato
!!!example: 208B
!!!work: Sch-29
**kern	**dynam	**kern	**dynam	**kern	**dynam	**kern	**dynam
*part4	*part4	*part3	*part3	*part2	*part2	*part1	*part1
*staff4	*	*staff3	*	*staff2	*	*staff1	*
*I"Violoncello	*	*I"Viola	*	*I"Violin II	*	*I"Violin I	*
*I'Vc.	*	*I'Vla.	*	*I'Vln. II	*	*I'Vln. I	*
*clefF4	*	*clefC3	*	*clefG2	*	*clefG2	*
*k[]	*	*k[]	*	*k[]	*	*k[]	*
*C:	*	*C:	*	*C:	*	*C:	*
*M4/4	*	*M4/4	*	*M4/4	*	*M4/4	*
*MM121	*	*MM121	*	*MM121	*	*MM121	*
=174	=174	=174	=174	=174	=174	=174	=174
4r	.	1r	.	(8f#XL	.	(8ddnL	p
.	.	.	.	8d#X')	.	8bbn)	.
(4GGn	.	.	.	(8d#	.	(8bb	.
.	.	.	.	8an'J)	.	8ccnJ)	.
[2En	.	.	.	(8aL	.	(8ccL	.
.	.	.	.	8B-X')	<	8ffn)	<
.	.	.	.	(8B-	.	(8ffn	.
.	.	.	.	8d-X'J)	[[	8a-XJ)	[[
=175	=175	=175	=175	=175	=175	=175	=175
4En])	.	1r	.	4d-X~	>	4a-X~	>
(2D#X	.	.	.	(8cL	]	(8ffnL	]
.	.	.	.	8bnJ)	.	8a-XJ)	.
.	.	.	.	(8bL	.	(8a-XL	.
.	.	.	.	8f#X)	.	8dn)	.
[4An	<[	.	.	(8f#	>	(8d	.
.	.	.	.	8GJ)	]]	8cc#XJ)	.
=176	=176	=176	=176	=176	=176	=176	=176
4A])	>	1r	.	(8GL	>	(8cc#XL	.
.	.	.	.	8en)	.	8bn)	.
(4cn	] <	.	.	(8an	]	(8bn	.
.	.	.	.	8e-X'J)	.	8gg#X'J)	.
2FFn)	>]	.	.	(8e-L	.	(8gg#L	.
.	.	.	.	8b-X')	.	8gn')	.
.	.	.	.	(8b-	<	(8g	.
.	.	.	.	8f#X'J)	[[	8cc#XJ)	.
=177	=177	=177	=177	=177	=177	=177	=177
2r	]	1r	.	(8f#XL	>	(8cc#XL	.
.	.	.	.	8ddnJ)	.	8enJ)	.
.	.	.	.	4dd~	]	4e~	.
*clefC4	*	*	*	*	*	*	*
(4f#X	< >	.	.	(8GL	<	(8dddL	<
.	.	.	.	8b-X')	.	8gg#X')	.
[4Bn	] ]	.	.	(8b-	.	(8gg#	.
.	.	.	.	8en'J)	[	8ddd'J)	[
=178	=178	=178	=178	=178	=178	=178	=178
!!linebreak:original
2B])	.	1r	.	(8enL	.	(8ccc#XL	.
.	.	.	.	8dd#X')	.	8ffn')	.
.	.	.	.	(8dd#	.	(8ff	.
.	.	.	.	8ccn'J)	.	8aan'J)	.
2b-X	.	.	.	(8BnL	<	(8ee-XL	<
.	.	.	.	8dn')	.	8g-X')	.
.	.	.	.	(8d	.	(8g-	.
.	.	.	.	8A-X'J)	.	8ffn'J)	.
*clefF4	*	*	*	*	*	*	*
=179	=179	=179	=179	=179	=179	=179	=179
2D-X	< >	1r	.	(8A-XL	.	(8ffL	.
.	.	.	.	8gn')	.	8ccn')	.
.	.	.	.	(8g	.	(8cc	.
.	.	.	.	8en'J)	.	8aan'J)	.
(4A-X	] ] <	.	.	(8gL	[	(8dd-XL	[
.	.	.	.	8en')	.	8bb-X')	.
[4dn	>]	.	.	(8e	.	(8bb-	.
.	.	.	.	8ffn'J)	.	8an'J)	.
=180	=180	=180	=180	=180	=180	=180	=180
2d])	.	2r	.	(8ffnL	>	(8anL	>
.	.	.	.	8ccn')	.	8ddd#X')	.
.	.	.	.	(8cc	.	(8ddd#	.
.	.	.	.	8bbn'J)	.	8ff#X'J)	.
2r	]	8FL	< mf	(8ggnL	[ < mf	(8bb-XL	[ < mf
.	.	8cn	.	8een	.	8dd-X	.
.	.	8Bn	.	8a-X	.	8dn	.
.	.	8f#XJ	[	8e-XJ)	[	8A-XJ)	[
=	=	=	=	=	=	=	=
*-	*-	*-	*-	*-	*-	*-	*-
!!!system-decoration: [(s1,s2,s3,s4)]
!!!CDT: 1874/09/13-1951/07/13
!!!CBL: Vienna, Austria
!!!CDL: Los Angeles, United States
!!!CNT: Austrian
!!!AGN: Instrumental; Chamber
!!!MCN:
!!!MDT: 1927/09/19
!!!MGN: Kolisch Quartet
!!!MLC: Vienna, Austria
!!!MPD: 1927
!!!MPN: Kolisch, Rudolf
!!!ODT: 1927
!!!PDT: 1927
!!!excerpt-start-measure: 174
!!!excerpt-end-measure: 180
!!!excerpt-start-time: 4:08
!!!excerpt-end-time: 4:19
!!!EEV: 2020/01/22
!!!ONB: Converted from MusicXML on 2020/01/22
